website/static/img/icons/excel.svg

<svg height="96" viewBox="0 0 48 48" width="96" xmlns="http://www.w3.org/2000/svg"><path d="m29 6h-13.256c-.963 0-1.744.781-1.744 1.744v7.259h15z" fill="#169154"/><path d="m14 33.054v7.202c0 .963.781 1.744 1.743 1.744h13.257v-8.946z" fill="#18482a"/><path d="m14 15.003h15v9.002h-15z" fill="#0c8045"/><path d="m14 24.005h15v9.05h-15z" fill="#17472a"/><path d="m42.256 6h-13.256v9.003h15v-7.259c0-.963-.781-1.744-1.744-1.744z" fill="#29c27f"/><path d="m29 33.054v8.946h13.257c.962 0 1.743-.781 1.743-1.743v-7.202h-15z" fill="#27663f"/><path d="m29 15.003h15v9.002h-15z" fill="#19ac65"/><path d="m29 24.005h15v9.05h-15z" fill="#129652"/><path d="m22.319 34h-16.638c-.928 0-1.681-.753-1.681-1.681v-16.638c0-.928.753-1.681 1.681-1.681h16.638c.928 0 1.681.753 1.681 1.681v16.638c0 .928-.753 1.681-1.681 1.681z" fill="#0c7238"/><path d="m9.807 19h2.386l1.936 3.754 2.046-3.754h2.229l-3.071 5 3.141 5h-2.351l-2.11-3.93-2.101 3.93h-2.386l3.193-5.018z" fill="#fff"/></svg>

<svg xmlns="http://www.w3.org/2000/svg"  viewBox="0 0 48 48" width="96px" height="96px"><path fill="#169154" d="M29,6H15.744C14.781,6,14,6.781,14,7.744v7.259h15V6z"/><path fill="#18482a" d="M14,33.054v7.202C14,41.219,14.781,42,15.743,42H29v-8.946H14z"/><path fill="#0c8045" d="M14 15.003H29V24.005000000000003H14z"/><path fill="#17472a" d="M14 24.005H29V33.055H14z"/><g><path fill="#29c27f" d="M42.256,6H29v9.003h15V7.744C44,6.781,43.219,6,42.256,6z"/><path fill="#27663f" d="M29,33.054V42h13.257C43.219,42,44,41.219,44,40.257v-7.202H29z"/><path fill="#19ac65" d="M29 15.003H44V24.005000000000003H29z"/><path fill="#129652" d="M29 24.005H44V33.055H29z"/></g><path fill="#0c7238" d="M22.319,34H5.681C4.753,34,4,33.247,4,32.319V15.681C4,14.753,4.753,14,5.681,14h16.638 C23.247,14,24,14.753,24,15.681v16.638C24,33.247,23.247,34,22.319,34z"/><path fill="#fff" d="M9.807 19L12.193 19 14.129 22.754 16.175 19 18.404 19 15.333 24 18.474 29 16.123 29 14.013 25.07 11.912 29 9.526 29 12.719 23.982z"/></svg>
